svgs/urban_company.svg

<svg width="192" height="192" viewBox="0 0 192 192" fill="none" xmlns="http://www.w3.org/2000/svg">
<path d="M22 104.056V58H39.7239V100.439C39.7239 109.098 46.7436 116.118 55.4028 116.118C64.062 116.118 71.0816 109.098 71.0816 100.439V58H88.8055V104.056C88.8055 120.624 75.3741 134.056 58.8055 134.056H52C35.4315 134.056 22 120.624 22 104.056Z" stroke="black" stroke-width="12" stroke-linecap="round" stroke-linejoin="round"/>
<path d="M170 121.226C164.876 126.992 158.114 131.074 150.608 132.932C143.103 134.79 135.209 134.336 127.968 131.63C120.728 128.924 114.483 124.094 110.059 117.779C105.636 111.463 103.242 103.959 103.195 96.2602C103.148 88.561 105.449 81.0289 109.795 74.66C114.14 68.2911 120.325 63.3854 127.532 60.5917C134.739 57.798 142.627 57.2479 150.155 59.0142C157.682 60.7805 164.494 64.78 169.689 70.4837M157.186 110.195C154.387 113.37 150.693 115.618 146.593 116.64C142.493 117.663 138.18 117.413 134.225 115.924C130.27 114.434 126.858 111.775 124.441 108.298C122.025 104.82 120.717 100.689 120.692 96.4504C120.666 92.2117 121.923 88.0651 124.297 84.5588C126.671 81.0525 130.05 78.3518 133.987 76.8138C137.923 75.2758 142.233 74.9729 146.345 75.9454C150.457 76.9178 154.178 79.1196 157.016 82.2597M169.704 70.5043L157.001 82.2473M157.153 110.212L169.979 121.174" stroke="black" stroke-width="12" stroke-miterlimit="57.5" stroke-linecap="round" stroke-linejoin="round"/>
</svg>

<svg width="192" height="192" viewBox="0 0 192 192" fill="none" xmlns="http://www.w3.org/2000/svg"><path d="M22 104.056V58h17.724v42.439c0 8.659 7.02 15.679 15.679 15.679s15.679-7.02 15.679-15.679V58h17.724v46.056c0 16.568-13.432 30-30 30H52c-16.569 0-30-13.432-30-30Z" stroke="#000" stroke-width="12" stroke-linecap="round" stroke-linejoin="round"/><path d="M170 121.226a38.227 38.227 0 0 1-19.392 11.706 38.354 38.354 0 0 1-22.64-1.302 38.184 38.184 0 0 1-17.909-13.851 37.916 37.916 0 0 1-6.864-21.519 37.907 37.907 0 0 1 6.6-21.6 38.163 38.163 0 0 1 17.737-14.068 38.359 38.359 0 0 1 22.623-1.578 38.235 38.235 0 0 1 19.534 11.47m-12.503 39.711a20.845 20.845 0 0 1-10.593 6.445 20.804 20.804 0 0 1-12.368-.716 20.885 20.885 0 0 1-9.784-7.626 20.986 20.986 0 0 1-3.749-11.848 20.982 20.982 0 0 1 3.605-11.891 20.88 20.88 0 0 1 9.69-7.745 20.8 20.8 0 0 1 12.358-.869 20.853 20.853 0 0 1 10.671 6.315m12.688-11.756-12.703 11.743m.152 27.965 12.826 10.962" stroke="#000" stroke-width="12" stroke-miterlimit="57.5" stroke-linecap="round" stroke-linejoin="round"/></svg>
